src/symbolic/status/weather-storm-tornado-night-symbolic.svg

<?xml version="1.0" encoding="UTF-8" standalone="no"?>
<svg
   xmlns:dc="http://purl.org/dc/elements/1.1/"
   xmlns:cc="http://creativecommons.org/ns#"
   xmlns:rdf="http://www.w3.org/1999/02/22-rdf-syntax-ns#"
   xmlns:svg="http://www.w3.org/2000/svg"
   xmlns="http://www.w3.org/2000/svg"
   xmlns:sodipodi="http://sodipodi.sourceforge.net/DTD/sodipodi-0.dtd"
   xmlns:inkscape="http://www.inkscape.org/namespaces/inkscape"
   id="svg8"
   version="1.1"
   width="16"
   height="16.001"
   sodipodi:docname="weather-storm-tornado-night-symbolic.svg"
   inkscape:version="0.92.3 (2405546, 2018-03-11)">
  <sodipodi:namedview
     pagecolor="#ffffff"
     bordercolor="#666666"
     borderopacity="1"
     objecttolerance="10"
     gridtolerance="10"
     guidetolerance="10"
     inkscape:pageopacity="0"
     inkscape:pageshadow="2"
     inkscape:window-width="3200"
     inkscape:window-height="1674"
     id="namedview7"
     showgrid="false"
     inkscape:zoom="14.749079"
     inkscape:cx="8"
     inkscape:cy="7.458093"
     inkscape:window-x="0"
     inkscape:window-y="60"
     inkscape:window-maximized="1"
     inkscape:current-layer="svg8" />
  <metadata
     id="metadata14">
    <rdf:RDF>
      <cc:Work
         rdf:about="">
        <dc:format>image/svg+xml</dc:format>
        <dc:type
           rdf:resource="http://purl.org/dc/dcmitype/StillImage" />
        <dc:title></dc:title>
      </cc:Work>
    </rdf:RDF>
  </metadata>
  <defs
     id="defs12" />
  <path
     style="opacity:0.6;vector-effect:none;fill:#555761;fill-opacity:1;stroke:none;stroke-width:1.00000012;stroke-linecap:butt;stroke-linejoin:miter;stroke-miterlimit:4;stroke-dasharray:none;stroke-dashoffset:0;stroke-opacity:1;marker:none;paint-order:normal"
     d="M 3.5 4.0019531 C 3.223 4.0019531 3 4.2249531 3 4.5019531 C 3 4.7789531 3.223 5.0019531 3.5 5.0019531 L 12.5 5.0019531 C 12.777 5.0019531 13 4.7789531 13 4.5019531 C 13 4.2249531 12.777 4.0019531 12.5 4.0019531 L 3.5 4.0019531 z M 5 6.0019531 C 4.723 6.0019531 4.5 6.2249531 4.5 6.5019531 C 4.5 6.7789531 4.723 7.0019531 5 7.0019531 L 11 7.0019531 C 11.277 7.0019531 11.5 6.7789531 11.5 6.5019531 C 11.5 6.2249531 11.277 6.0019531 11 6.0019531 L 5 6.0019531 z M 6.5 8.0019531 C 6.223 8.0019531 6 8.2249531 6 8.5019531 C 6 8.7789531 6.223 9.0019531 6.5 9.0019531 L 11.5 9.0019531 C 11.777 9.0019531 12 8.7789531 12 8.5019531 C 12 8.2249531 11.777 8.0019531 11.5 8.0019531 L 6.5 8.0019531 z M 7 10.001953 C 6.723 10.001953 6.5 10.224953 6.5 10.501953 C 6.5 10.778953 6.723 11.001953 7 11.001953 L 9.5 11.001953 C 9.777 11.001953 10 10.778953 10 10.501953 C 10 10.224953 9.777 10.001953 9.5 10.001953 L 7 10.001953 z M 7 12.001953 C 6.723 12.001953 6.5 12.224953 6.5 12.501953 C 6.5 12.778953 6.723 13.001953 7 13.001953 L 7.5 13.001953 C 7.777 13.001953 8 12.778953 8 12.501953 C 8 12.224953 7.777 12.001953 7.5 12.001953 L 7 12.001953 z "
     id="rect2160" />
</svg>

<svg xmlns="http://www.w3.org/2000/svg" width="16" height="16.001"><path style="marker:none" d="M3.5 4.002a.499.499 0 1 0 0 1h9a.499.499 0 1 0 0-1h-9zm1.5 2a.499.499 0 1 0 0 1h6a.499.499 0 1 0 0-1H5zm1.5 2a.499.499 0 1 0 0 1h5a.499.499 0 1 0 0-1h-5zm.5 2a.499.499 0 1 0 0 1h2.5a.499.499 0 1 0 0-1H7zm0 2a.499.499 0 1 0 0 1h.5a.499.499 0 1 0 0-1H7z" opacity=".6" fill="#555761"/></svg>
